X: 46
T: Peggy Whiffle's -- Reel
R:reel
B:Ryan's Mammoth Collection
Z:Contributed by Ray Davies,  ray:davies99.freeserve.co.uk
M:C|
L:1/8
K:A
  GF \
| (3EFE CE    Acec | fcec BcA2 |(3EFE CE Aceg | afec BcA2 |
| (3EFE CE    Acec | dBcA BAFA | E2(3EFG Aceg | afec A2  :|
|:(3efg \
| {b}agab     aece | ecac eace | {b}agab aece |  gbeg befg |
| {b}agae (3fga ec | dBcA BAFA | E2(3EFG Aceg |1 afec A2  :|

%%sep 1 1 500

